!!!!SEGMENT: pl-kozmzk--mzk-m-346--041_walczynski-franciszek--cantantibus-organis-maestoso.krn
!!!cenid: 18xx:2836
!!!COM: Walczyński, Franciszek
!!!COM-rismID:
!!!CDT: ~1852-1937
!!!CNT: Polish
!!!GTL: Cantantibus organis op. 10
!!!OTL: 41. Maestoso
!!!PDT: 1898
!!!AGN: Secular
!!!SMS-siglum: PL-KOZmzk
!!!SMS-shelfmark: mzk/m/346
!!!SMS-shelfwork: 041 G
!!!SMS-variant:
!!!SMS-altvar:
!!!NIFC-rismSourceID: 1001109604
!!!NIFC-islandoraID: pl-kozmzk:7453
!!!URL-pdf-islandora: https://repozytorium.nifc.pl/islandora/object/pl-kozmzk%3A7453/datastream/PDF/view
!!!URL-scan: https://polish.musicsources.pl/pl/lokalizacje/galeria/druki-muzyczne/7581 @EN{Scan on Polish Music Herritage in Open Access Website} @PL{Skany w portalu Dziedzictwo Muzyki Polskiej w otwartym dostępie}
!!!ONB-nifc:
!!!AIN: 1 organ
!!!key:
**kern	**kern	**dynam
*part1	*part1	*part1
*staff2	*staff1	*
*Iorgan	*Iorgan	*
*I"Organo	*I"Organo	*
*clefF4	*clefG2	*
*k[b-e-]	*k[b-e-]	*
*g:	*g:	*
*M4/4	*M4/4	*
*met(c)	*met(c)	*
=1	=1	=1
*	*^	*
!!LO:TX:B:a:t=Maestoso.
(8GG\L	1re	1r	p
8D\	.	.	.
8G\	.	.	.
8A\J	.	.	.
8B-\L	.	.	.
8d\	.	.	.
8B-\	.	.	.
8A\J	.	.	.
=2	=2	=2	=2
!	!	!	!LO:DY:a
4G\	(4b-/	(4d\	pp >
4E-\	4cc/)	4g\)	.
2D\)	2a^/	2f#X\	]]
=3	=3	=3	=3
!	!	!	!LO:DY:b=2
(8DD/L	1re	1r	f
8AA/	.	.	.
8D/	.	.	.
8En/J	.	.	.
8F#X\L	.	.	.
8A\	.	.	.
8F#\	.	.	.
8E\J	.	.	.
=4	=4	=4	=4
*	*	*^	*
!	!	!	!	!LO:DY:a
2D\	(4a/	2c\	2f#X/	p >
.	4b-/)	.	.	.
2GG/)	2g/	2B-\	2ryy	]
*	*	*v	*v	*
=5	=5	=5	=5
!	!	!	!LO:DY:b=2
(8GG\L	1re	1r	< ff
8D\	.	.	.
8G\	.	.	.
8A\J	.	.	.
8B-\L	.	.	.
8d\	.	.	.
8g\	.	.	.
8f\J	.	.	[
=6	=6	=6	=6
!	!	!	!LO:DY:a
4e-\	4cc/	1g	f
4Bn\	4dd/	.	.
2c\)	2ee-^/	.	.
=7	=7	=7	=7
(8d\L	(4.dd/	(4f#X\	p
8c\	.	.	.
8B-\	.	[4g\	.
8A\J	8cc/	.	.
8G\L	8b-/L	2g\]	.
8F\	8bn/	.	>
8E-\	8cc/	.	.
8D\J	8b-X/J	.	.
=8	=8	=8	=8
!!LO:LB:g=original
!LO:TX:t=P:problem=łuk łamany	!	!	!
4C/	4a/	4e-\	.
4D\	4f#X/)	8d\L	.
.	.	8c\J	.
2E-;\)	2g;/	2B-\)	]
=9	=9	=9	=9
!	!	!	!LO:DY:b=2
(8EE-/L	1re	1r	p
8BB-/	.	.	.
8E-/	.	.	.
8F/J	.	.	.
8G\L	.	.	.
8An\	.	.	.
8B-\	.	.	.
8G\J	.	.	.
*	*v	*v	*
=10	=10	=10
4en\	1g; 1b-	f
4d\	.	.
2c#X^\)	.	.
=11	=11	=11
*	*^	*
!	!	!	!LO:DY:b=2
(8GG\L	1re	1r	pp
8D\	.	.	.
8G\	.	.	.
8A\J	.	.	.
8B-\L	.	.	.
8d\	.	.	.
8B-\	.	.	.
8A\J)	.	.	.
=12	=12	=12	=12
4G\	4e-'/	4c\	pp
4G\	4c'/	4A\	.
2G\	2d^/	2B-\	.
=13	=13	=13	=13
!!LO:TX:a:B:t=Lento.
8G'\L	1re	1r	.
8F'\	.	.	>
8E-'\	.	.	.
8D'\J	.	.	.
8C'/L	.	.	.
8BB-'/	.	.	.
8AA'/	.	.	.
!LO:TX:b:i:t=rall.	!	!	!
8D'/J	.	.	.
*	*v	*v	*
=14	=14	=14
1GG;	4D</ 4B-<	] ppp
.	4C</ 4A<	.
.	2BB-<;/ 2G<	.
==	==	==
*-	*-	*-
!!!system-decoration: {(s1,s2)}
!!!RDF**kern: > = above
!!!RDF**kern: < = below
!!!ENC: Kamil Watkowski
!!!END: 2021-08-09
